src/assets/red-fish.svg

<svg width="86" height="83" viewBox="0 0 86 83" fill="none" xmlns="http://www.w3.org/2000/svg">
<path d="M35.0703 25.6398C39.3384 23.3069 43.9529 21.6733 48.7381 20.8011C47.3266 20.48 45.9905 20.2375 44.8231 20.0958C38.8351 19.3578 28.4025 24.6926 25.0753 28.6428C23.0396 31.0645 22.8837 34.7359 23.0718 37.2196C25.9796 32.3687 30.1192 28.3735 35.0703 25.6398Z" fill="#C00000"/>
<path d="M35.0373 24.7463C28.3891 28.3763 24.661 34.535 23.072 37.2197C23.1327 38.1157 23.2557 39.0064 23.44 39.8854L61.8651 27.2898L61.474 24.4667C61.474 24.4667 54.5514 22.0926 48.7383 20.8011C43.939 21.6481 39.1782 22.4838 35.0373 24.7463Z" fill="#A70000"/>
<path d="M19.8399 50.1102C19.8399 50.1102 27.0241 54.4605 28.9296 59.3349C32.3317 68.0186 54.7643 67.0653 61.347 59.4436C66.0824 53.9687 67.1048 54.2709 67.1048 54.2709C67.1048 54.2709 20.2948 43.4614 19.8399 50.1102Z" fill="#900000"/>
<path d="M53.4235 47.5086C63.1552 44.4171 67.0612 34.0864 68.2741 28.0693C61.897 23.2649 53.2867 22.2212 43.2307 24.684C29.7176 27.9708 23.2535 39.3485 22.1804 41.4792C22.0434 41.7482 21.8719 41.9982 21.6704 42.2229C30.7035 45.7475 44.892 50.2186 53.4235 47.5086Z" fill="#FF3200"/>
<path d="M74.0117 34.339C72.4897 31.9226 70.5463 29.799 68.2739 28.0692C67.061 34.0864 63.1549 44.4171 53.4232 47.5086C44.8947 50.2163 30.7151 45.7383 21.6701 42.2229C20.3674 43.7128 18.0575 44.0022 18.0575 44.0022L19.1649 50.1626C19.1649 50.1626 20.9984 49.2683 34.0252 56.7592C47.052 64.25 62.558 59.4043 66.9532 56.0336C71.3485 52.6629 80.3994 44.3106 74.0117 34.339Z" fill="#DD0020"/>
<path d="M73.7133 28.7845C74.1306 30.3644 73.9033 32.0454 73.0815 33.4578C72.2596 34.8702 70.9105 35.8983 69.3307 36.3162C66.0382 37.1871 63.7849 35.3613 62.911 32.0711C62.0372 28.7809 62.8833 25.2774 66.1764 24.4012C66.9591 24.1933 67.7752 24.1418 68.5778 24.2497C69.3804 24.3575 70.1539 24.6226 70.854 25.0298C71.554 25.4369 72.1669 25.9781 72.6576 26.6224C73.1482 27.2667 73.507 28.0014 73.7133 28.7845Z" fill="#910005"/>
<path d="M73.6498 27.5783C73.9615 28.7568 73.9167 30.0012 73.5211 31.1543C73.1255 32.3073 72.3969 33.3171 71.4273 34.056C70.4577 34.7949 69.2908 35.2296 68.0742 35.3053C66.8575 35.3809 65.6458 35.0941 64.5922 34.481C63.5385 33.8679 62.6904 32.9561 62.155 31.8609C61.6197 30.7658 61.4211 29.5365 61.5844 28.3285C61.7478 27.1204 62.2657 25.988 63.0727 25.0743C63.8797 24.1607 64.9395 23.5069 66.1181 23.1956C66.9004 22.9885 67.7158 22.9376 68.5178 23.0458C69.3198 23.154 70.0927 23.4192 70.7921 23.8262C71.4916 24.2332 72.104 24.7741 72.5943 25.4179C73.0846 26.0617 73.4433 26.7958 73.6498 27.5783Z" fill="#D20008"/>
<path d="M60.3594 32.0991C61.7423 32.4403 62.993 33.1839 63.9533 34.2358C64.9137 35.2878 65.5405 36.601 65.7545 38.0092C65.9685 39.4174 65.7601 40.8575 65.1557 42.1473C64.5513 43.4371 63.578 44.5187 62.3589 45.2553C61.1398 45.992 59.7296 46.3506 58.3067 46.2858C56.8837 46.221 55.512 45.7357 54.3649 44.8912C53.2178 44.0468 52.3468 42.8812 51.8622 41.5418C51.3775 40.2024 51.3009 38.7493 51.6421 37.3664C51.8686 36.4482 52.2738 35.5835 52.8345 34.8219C53.3951 34.0602 54.1003 33.4164 54.9098 32.9273C55.7193 32.4382 56.6172 32.1133 57.5522 31.9712C58.4873 31.8291 59.4411 31.8725 60.3594 32.0991Z" fill="#910005"/>
<path d="M59.4805 31.045C60.8634 31.3862 62.1141 32.1298 63.0744 33.1818C64.0348 34.2338 64.6616 35.5469 64.8756 36.9551C65.0896 38.3633 64.8812 39.8034 64.2768 41.0932C63.6724 42.383 62.6991 43.4646 61.48 44.2013C60.2609 44.9379 58.8507 45.2965 57.4278 45.2317C56.0048 45.1669 54.6331 44.6816 53.486 43.8372C52.3389 42.9927 51.4679 41.8271 50.9833 40.4877C50.4986 39.1483 50.422 37.6953 50.7632 36.3123C50.9897 35.3941 51.3949 34.5294 51.9555 33.7678C52.5162 33.0061 53.2214 32.3624 54.0309 31.8732C54.8404 31.3841 55.7383 31.0592 56.6733 30.9171C57.6084 30.775 58.5622 30.8185 59.4805 31.045Z" fill="#D20008"/>
<path d="M71.8482 28.623C72.0565 29.4092 72.027 30.2395 71.7633 31.0088C71.4997 31.7782 71.0138 32.4521 70.367 32.9452C69.7203 33.4383 68.9419 33.7286 68.1302 33.7792C67.3185 33.8299 66.51 33.6386 65.807 33.2296C65.104 32.8207 64.5381 32.2124 64.1809 31.4818C63.8237 30.7512 63.6912 29.931 63.8002 29.1251C63.9093 28.3191 64.2549 27.5636 64.7933 26.9541C65.3318 26.3446 66.039 25.9086 66.8253 25.7011C67.8789 25.4231 68.9997 25.5747 69.9415 26.1225C70.8833 26.6704 71.5691 27.5698 71.8482 28.623Z" fill="white"/>
<path d="M69.3039 30.2043C69.2729 30.4528 69.1689 30.6865 69.0051 30.876C68.8413 31.0654 68.6249 31.202 68.3835 31.2686C68.1421 31.3352 67.8863 31.3287 67.6486 31.25C67.4108 31.1713 67.2017 31.0238 67.0477 30.8263C66.8937 30.6289 66.8016 30.3901 66.7832 30.1404C66.7648 29.8906 66.8208 29.641 66.9442 29.423C67.0676 29.2051 67.2528 29.0286 67.4765 28.9159C67.7001 28.8031 67.9522 28.7592 68.2008 28.7897C68.3666 28.809 68.5269 28.861 68.6724 28.9428C68.8179 29.0246 68.9457 29.1345 69.0483 29.2662C69.151 29.3978 69.2264 29.5485 69.2703 29.7096C69.3142 29.8706 69.3256 30.0388 69.3039 30.2043Z" fill="black"/>
<path d="M59.6479 33.9763C60.5716 34.2018 61.4076 34.6965 62.0499 35.3976C62.6922 36.0987 63.1119 36.9748 63.2559 37.9146C63.3998 38.8545 63.2615 39.816 62.8585 40.6772C62.4555 41.5384 61.8059 42.2607 60.9921 42.7523C60.1782 43.244 59.2367 43.483 58.2869 43.4391C57.337 43.3952 56.4216 43.0703 55.6566 42.5056C54.8916 41.9409 54.3114 41.1618 53.9896 40.2671C53.6678 39.3723 53.6189 38.4022 53.8489 37.4796C54.1562 36.2477 54.9387 35.1876 56.0254 34.5311C57.1121 33.8746 58.4145 33.6751 59.6479 33.9763Z" fill="white"/>
<path d="M59.2733 37.7377C59.5754 37.8124 59.8486 37.975 60.0583 38.205C60.268 38.435 60.4047 38.722 60.4513 39.0297C60.4979 39.3374 60.4521 39.652 60.3199 39.9337C60.1876 40.2155 59.9748 40.4516 59.7083 40.6124C59.4418 40.7731 59.1336 40.8513 58.8227 40.8368C58.5118 40.8224 58.2122 40.7161 57.9617 40.5314C57.7112 40.3467 57.5212 40.0918 57.4155 39.7991C57.3099 39.5063 57.2935 39.1888 57.3683 38.8867C57.4687 38.4818 57.7257 38.1333 58.0829 37.9178C58.4401 37.7023 58.8683 37.6375 59.2733 37.7377Z" fill="black"/>
<path d="M72.1824 42.112C72.2858 42.561 72.2537 43.0307 72.0901 43.4614C71.9265 43.8922 71.6387 44.2648 71.2632 44.5319C70.8877 44.799 70.4414 44.9487 69.9808 44.9621C69.5202 44.9754 69.066 44.8518 68.6757 44.6068C68.2854 44.3619 67.9766 44.0066 67.7883 43.586C67.6 43.1654 67.5407 42.6984 67.618 42.2442C67.6953 41.7899 67.9057 41.3687 68.2224 41.0341C68.5392 40.6994 68.9482 40.4663 69.3975 40.3642C69.6952 40.2955 70.0034 40.2863 70.3046 40.3371C70.6059 40.3878 70.8941 40.4975 71.1528 40.6599C71.4115 40.8223 71.6357 41.0341 71.8123 41.2833C71.989 41.5325 72.1148 41.8141 72.1824 42.112Z" fill="black"/>
<path d="M36.8804 38.5415C37.0041 39.0751 36.9668 39.6334 36.7731 40.1458C36.5795 40.6582 36.2383 41.1017 35.7926 41.4202C35.3469 41.7386 34.8168 41.9178 34.2693 41.935C33.7218 41.9521 33.1815 41.8065 32.7168 41.5166C32.252 41.2267 31.8837 40.8055 31.6584 40.3062C31.433 39.807 31.3608 39.2521 31.4508 38.7118C31.5408 38.1714 31.7891 37.67 32.1641 37.2707C32.5392 36.8715 33.0242 36.5925 33.5579 36.4689C34.2733 36.3033 35.0252 36.4286 35.6483 36.8172C36.2713 37.2059 36.7145 37.8261 36.8804 38.5415Z" fill="#900000"/>
<path d="M45.9897 40.4377C46.0604 40.7416 46.0394 41.0597 45.9293 41.3517C45.8192 41.6436 45.6249 41.8964 45.3712 42.0779C45.1174 42.2595 44.8154 42.3616 44.5036 42.3715C44.1917 42.3814 43.8839 42.2986 43.6191 42.1335C43.3543 41.9684 43.1444 41.7284 43.0161 41.444C42.8877 41.1596 42.8466 40.8435 42.8979 40.5358C42.9492 40.228 43.0907 39.9423 43.3044 39.715C43.5181 39.4876 43.7944 39.3287 44.0985 39.2585C44.3001 39.2114 44.509 39.2046 44.7133 39.2384C44.9176 39.2722 45.1132 39.346 45.2889 39.4555C45.4646 39.5651 45.6169 39.7082 45.7372 39.8768C45.8574 40.0453 45.9433 40.236 45.9897 40.4377Z" fill="#900000"/>
<path d="M28.2647 42.213C28.3339 42.5176 28.3112 42.836 28.1992 43.1276C28.0873 43.4193 27.8913 43.6712 27.636 43.8513C27.3808 44.0314 27.0777 44.1317 26.7654 44.1393C26.4531 44.147 26.1455 44.0617 25.8817 43.8943C25.618 43.7269 25.4098 43.485 25.2837 43.1991C25.1577 42.9133 25.1193 42.5964 25.1736 42.2887C25.2278 41.9811 25.3722 41.6964 25.5885 41.471C25.8047 41.2455 26.0831 41.0893 26.3882 41.0222C26.7948 40.9329 27.2203 41.0079 27.5718 41.2309C27.9233 41.454 28.1724 41.807 28.2647 42.213Z" fill="#900000"/>
<path d="M42.3923 34.1717C42.471 34.5087 42.4479 34.8614 42.326 35.1852C42.2042 35.5091 41.989 35.7895 41.7078 35.991C41.4265 36.1926 41.0918 36.3062 40.746 36.3174C40.4001 36.3287 40.0587 36.2371 39.765 36.0544C39.4712 35.8716 39.2382 35.6057 39.0955 35.2905C38.9529 34.9753 38.9069 34.6248 38.9634 34.2835C39.02 33.9421 39.1765 33.6252 39.4132 33.3728C39.6499 33.1204 39.9561 32.9439 40.2931 32.8656C40.7447 32.7606 41.2194 32.8393 41.613 33.0842C42.0067 33.3291 42.287 33.7203 42.3923 34.1717Z" fill="#900000"/>
<path d="M51.8824 28.795C51.9854 29.2448 51.9526 29.7151 51.7883 30.1463C51.6239 30.5774 51.3354 30.9502 50.9591 31.2173C50.5828 31.4844 50.1358 31.6339 49.6745 31.6468C49.2132 31.6598 48.7585 31.5356 48.3679 31.29C47.9772 31.0444 47.6682 30.6884 47.4799 30.2671C47.2917 29.8458 47.2326 29.3782 47.3102 28.9233C47.3878 28.4684 47.5987 28.0468 47.916 27.7118C48.2333 27.3768 48.6429 27.1435 49.0929 27.0414C49.6953 26.9046 50.3274 27.0125 50.8503 27.3413C51.3733 27.6701 51.7445 28.1929 51.8824 28.795Z" fill="#900000"/>
<path d="M10.7519 45.7374C13.4216 46.973 11.148 52.0068 13.2141 51.7937C14.7788 51.6304 16.8891 42.7286 21.6296 42.5294C22.5596 40.7804 23.4174 38.9693 23.4174 38.9693C19.8306 43.1883 14.5601 32.4734 11.0831 32.8768C7.60607 33.2802 11.2909 39.786 11.2909 39.786C11.2909 39.786 7.38926 39.2741 6.68373 42.2225C7.64632 43.3961 9.15982 45.0026 10.7519 45.7374Z" fill="#D70000"/>
<path d="M13.214 51.7937C11.1364 51.992 13.4238 46.9759 10.7517 45.7373C9.15967 45.0025 7.65766 43.4108 6.68653 42.2202C6.59412 42.6261 6.55869 43.043 6.58126 43.4587C6.78679 47.782 11.8232 47.2146 9.75092 50.2762C7.67865 53.3378 11.9251 57.1117 15.79 54.0455C19.655 50.9793 21.528 50.5187 21.528 50.5187C21.528 50.5187 23.5735 49.0515 21.9901 45.6416C21.5505 44.669 21.4313 43.5819 21.6498 42.5372C16.8889 42.7285 14.7786 51.6304 13.214 51.7937Z" fill="#B20000"/>
<path d="M62.9819 25.1059C62.6899 24.8776 62.3854 24.6656 62.0698 24.4712C61.1241 23.9186 60.1112 23.4899 59.0561 23.1957C56.992 22.6537 54.8607 22.4116 52.7276 22.4768C50.6287 22.5248 48.537 22.7407 46.4726 23.1224C44.4104 23.4934 42.3748 23.9995 40.379 24.6374C38.376 25.3159 36.4378 26.1723 34.5876 27.1964C32.7198 28.2478 30.9714 29.4985 29.373 30.9265C27.7495 32.373 26.3069 34.0105 25.0765 35.8033C23.8637 37.6211 22.3712 40.1074 21.7676 42.2748C22.8798 40.2339 24.2077 38.3181 25.7284 36.5603C27.0509 34.9054 28.5366 33.3879 30.1631 32.0308C31.7693 30.7642 33.4903 29.6505 35.3038 28.7043C37.0998 27.7576 38.9732 26.9658 40.9037 26.3373C42.8342 25.6985 44.8017 25.1771 46.7953 24.776C48.7842 24.3412 50.7992 24.0363 52.8277 23.8632C54.8578 23.6722 56.9039 23.7356 58.9183 24.052C59.9389 24.212 60.9357 24.4981 61.8858 24.9037C62.1925 25.0408 62.4908 25.1959 62.779 25.3684C62.8387 25.275 62.9066 25.1872 62.9819 25.1059Z" fill="#FF5100"/>
</svg>

<svg width="86" height="83" fill="none" xmlns="http://www.w3.org/2000/svg">
  <path d="M35.07 25.64a45.51 45.51 0 0113.67-4.84 39.5 39.5 0 00-3.92-.7c-5.98-.74-16.42 4.6-19.74 8.54-2.04 2.42-2.2 6.1-2 8.58a32.05 32.05 0 0111.99-11.58z" fill="#C00000"/>
  <path d="M35.04 24.75c-6.65 3.63-10.38 9.78-11.97 12.47.06.9.19 1.79.37 2.67l38.43-12.6-.4-2.82s-6.92-2.38-12.73-3.67c-4.8.85-9.56 1.68-13.7 3.95z" fill="#A70000"/>
  <path d="M19.84 50.11s7.18 4.35 9.09 9.22c3.4 8.69 25.83 7.74 32.42.11 4.73-5.47 5.75-5.17 5.75-5.17s-46.8-10.8-47.26-4.16z" fill="#900000"/>
  <path d="M53.42 47.5c9.74-3.08 13.64-13.41 14.85-19.43-6.37-4.8-14.98-5.85-25.04-3.39-13.51 3.3-19.98 14.67-21.05 16.8-.14.27-.3.52-.51.74 9.03 3.53 23.22 8 31.75 5.29z" fill="#FF3200"/>
  <path d="M74.01 34.34a23.86 23.86 0 00-5.74-6.27c-1.2 6.02-5.12 16.35-14.85 19.44-8.53 2.7-22.7-1.77-31.75-5.29-1.3 1.5-3.61 1.78-3.61 1.78l1.1 6.16s1.84-.9 14.87 6.6c13.02 7.49 28.53 2.64 32.92-.73 4.4-3.37 13.45-11.72 7.06-21.7z" fill="#DD0020"/>
  <path d="M73.71 28.78a6.16 6.16 0 01-4.38 7.54c-3.3.87-5.55-.96-6.42-4.25-.87-3.29-.03-6.8 3.27-7.67a6.16 6.16 0 017.53 4.38z" fill="#910005"/>
  <path d="M73.65 27.58a6.16 6.16 0 11-11.92 3.15 6.16 6.16 0 0111.92-3.15z" fill="#D20008"/>
  <path d="M60.36 32.1a7.2 7.2 0 11-3.45 13.98 7.2 7.2 0 013.45-13.98z" fill="#910005"/>
  <path d="M59.48 31.05a7.2 7.2 0 11-3.45 13.98 7.2 7.2 0 013.45-13.98z" fill="#D20008"/>
  <path d="M71.85 28.62a4.11 4.11 0 11-7.95 2.1 4.11 4.11 0 017.95-2.1z" fill="#fff"/>
  <path d="M69.3 30.2a1.27 1.27 0 11-2.51-.31 1.27 1.27 0 012.51.31z" fill="#000"/>
  <path d="M59.65 33.98a4.8 4.8 0 11-2.28 9.33 4.8 4.8 0 012.28-9.33z" fill="#fff"/>
  <path d="M59.27 37.74a1.57 1.57 0 11-.75 3.05 1.57 1.57 0 01.75-3.05zM72.18 42.11a2.33 2.33 0 11-4.54 1.05 2.33 2.33 0 014.54-1.05z" fill="#000"/>
  <path d="M36.88 38.54a2.77 2.77 0 11-5.4 1.25 2.77 2.77 0 015.4-1.25zM45.99 40.44a1.58 1.58 0 11-3.07.71 1.58 1.58 0 013.07-.71zM28.26 42.21a1.58 1.58 0 11-3.07.7 1.58 1.58 0 013.07-.7zM42.4 34.17a1.75 1.75 0 11-3.41.8 1.75 1.75 0 013.4-.8zM51.88 28.8a2.33 2.33 0 11-4.55 1.04 2.33 2.33 0 014.55-1.04z" fill="#900000"/>
  <path d="M10.75 45.74c2.67 1.23.4 6.27 2.46 6.05 1.57-.16 3.68-9.06 8.42-9.26a98.61 98.61 0 001.79-3.56c-3.59 4.22-8.86-6.5-12.34-6.1-3.47.41.21 6.92.21 6.92s-3.9-.52-4.6 2.43c.96 1.18 2.47 2.78 4.06 3.52z" fill="#D70000"/>
  <path d="M13.21 51.8c-2.07.2.21-4.82-2.46-6.06-1.59-.74-3.1-2.33-4.06-3.52-.1.4-.13.82-.1 1.24.2 4.32 5.23 3.75 3.16 6.82-2.07 3.06 2.18 6.83 6.04 3.77 3.87-3.07 5.74-3.53 5.74-3.53s2.04-1.47.46-4.88a5.03 5.03 0 01-.34-3.1c-4.76.19-6.87 9.09-8.44 9.25z" fill="#B20000"/>
  <path d="M62.98 25.1c-.29-.22-.6-.43-.91-.63-.95-.55-1.96-.98-3.01-1.27-2.07-.55-4.2-.79-6.33-.72-2.1.04-4.2.26-6.26.64-2.06.37-4.1.88-6.1 1.52-2 .68-3.93 1.53-5.78 2.56a29.68 29.68 0 00-5.22 3.73 26.98 26.98 0 00-4.3 4.87c-1.2 1.82-2.7 4.3-3.3 6.47a32.52 32.52 0 013.96-5.71 31.55 31.55 0 014.43-4.53 35.73 35.73 0 0110.74-5.7 50.4 50.4 0 015.9-1.55c1.98-.44 4-.74 6.03-.92 2.03-.19 4.07-.12 6.09.2 1.02.15 2.02.44 2.97.84.3.14.6.3.89.47.06-.1.13-.18.2-.26z" fill="#FF5100"/>
</svg>
